**kern	**kern	**dynam
*part1	*part1	*part1
*staff2	*staff1	*
*I"Piano	*	*
*clefF4	*clefG2	*
*k[f#c#g#d#]	*k[f#c#g#d#]	*
=1	=1	=1
4C#)	4G#) 4e	.
4r	4r	.
=	=	=
(4G# 4B	(4d# 4b	.
4E#X 4G#	4c##X 4a#X	.
=	=	=
2D#) 2A#X	2d#) 2f#	.
=	=	=
(2D# 2A#X 2d#	2f# 2dd#	.
=	=	=
(8qGG#/	.	<
*	*^	*
2GG#) 2B#X	6dd#	2f#	.
.	16qqee#X/LL	.	.
.	16qqdd#/JJ	.	.
.	6cc##X	.	.
.	6dd#	.	.
=	=	=	=
*^	*	*	*
4Bn	2C#	4.f# 4.ff#	4dd#	[
8G#L	.	.	8cc#XL	.
8c#J	.	8e#X 8ee#X	8bJ	>
*v	*v	*	*	*
*	*v	*v	*
=	=	=
4.F#) 4.c#	4.f# 4.a#X 4.ff#	.
8F#' 8c# 8en	8f#' 8a# 8cc# 8een 8ff#	] f
=	=	=
*^	*^	*
[4c# [4e	2F#	2ff#	4f# [4a#X [4cc# 4ee	<
12c#L] 12e]	.	.	12a#L] 12cc#]	.
12B 12d#	.	.	12b 12dd#	.
12c#J 12e	.	.	12cc#J 12ee	.
*v	*v	*	*	*
*	*v	*v	*
=	=	=
*-	*-	*-
!!!system-decoration: {(s1,s2)}
